www/assets/icons/signal_cellular_connected_no_internet_0_bar.svg

<svg xmlns="http://www.w3.org/2000/svg" width="24" height="24" viewBox="0 0 24 24" fill='currentColor'><path d="M20 18h2v-8h-2zm0 4h2v-2h-2zm-2-2v2H2L22 2v6h-2V6.83L6.83 20z"/></svg>

<svg width="24" height="24" viewBox="0 0 24 24" xmlns="http://www.w3.org/2000/svg" fill='currentColor'><path d="M20 18H22V10H20V18ZM20 22H22V20H20V22ZM18 20V22H2L22 2V8H20V6.83L6.83 20H18Z"/></svg>
